X:1
T:Title
%%score 1 2
L:1/8
Q:1/4=107
M:6/8
K:Bb
V:1 treble nm="Grand Piano, Soprano"
V:2 bass nm="Choir Pad, Pardon, Peace and Power"
V:1
 [DF] [DF]2 [_D=E] [=DF]2 | [EG] [DF]2 [CE] [B,D]2 | [DF] [DB]2 [CA] [DB]2 | %3
w: By~James~McGranahan * * *|||
 [Ec] [Fd]2- [Fd]2- [Fd]/ z/ | [DF] [DF]2 [_D=E] [=DF]2 | [EG] [DF]2 [CE] [B,D]2 | %6
w: |||
 [DF] [EG]2 [EB] [DB]2 |[M:12/8] [CA] [DB]2- [DB]/ z/ [DF]2 [DB] [Fd]2- [Fd]3- | %8
w: ||
 [Fd]3 [EA] [DB]2 [B,D] [DF]2- [DF]3- | [DF]3 [_D=E] [=DF]2 [DB] [_EA]2- [EA]3- | %10
w: ||
 [EA]3 [EF] [EA]2 [Ec] [DB]2- [DB]3- | [DB]3 [DF] [DB]2 [Fd] [_Af]2- [Af]3- | %12
w: ||
 [Af]3 [_AB] [Ad]2 [Af] [Ge]2- [Ge]3- | [Ge]3- [Ge]/ z/ [Ge]2- [Ge] [Fd]2 [DF] [DB]2 | %14
w: ||
 [Fd] [Ec]2 [EF] [EA]2 [Ec] [DB]2- [DB]3- | [DB]6 z6 |] %16
w: ||
V:2
 [B,,B,] [B,,B,]2 [B,,B,] [B,,B,]2 | [B,,B,] [B,,B,]2 [B,,F,] [B,,F,]2 | %2
 [B,,F,] [B,,F,]2 [E,F,] [D,F,]2 | [C,A,] [B,,B,]2- [B,,B,]2- [B,,B,]/ z/ | %4
 [B,,B,] [B,,B,]2 [B,,B,] [B,,B,]2 | [B,,B,] [B,,B,]2 [B,,F,] [B,,F,]2 | %6
 [B,,B,] [E,B,]2 [E,G,] F,2 |[M:12/8] F, [B,,F,]2- [B,,F,]/ z/ z z z [B,,B,]2 [B,,B,] [B,,B,]2 | %8
 [B,,B,] [B,,B,]2 z3 z [B,,B,]2 [B,,B,] [B,,B,]2 | [B,,B,] [B,,B,]2 z3 z3 [F,C] [F,C]2 | %10
 [F,C] [F,C]2 z3 z3 [B,,F,] [B,,F,]2 | [B,,F,] [B,,F,]2 z3 z3 [B,D] [B,D]2 | %12
 [B,D] [B,D]2 z3 z3 [E,B,] [E,B,]2 | %13
 [E,B,] [E,B,]2- [E,B,]/ z/ [E,B,]2- [E,B,] [F,B,]2 [F,B,] [F,B,]2 | %14
 [F,B,] [F,A,]2 [F,A,] [F,C]2 [F,A,] [B,,F,B,]2- [B,,F,B,]3- | [B,,F,B,]6 z6 |] %16

